X:1
T:Title
%%score ( 1 2 ) { 3 | 4 }
L:1/8
Q:1/4=110
M:4/4
K:Ab
V:1 treble nm="Grand Piano, Unnamed-000"
V:2 treble 
V:3 bass nm="Choir Pad, Amesbury, CMD"
V:4 bass 
V:1
 [CE]2 [CE]2 [CF]2 [CG]2 | [CA]2 [DA]2- [DA][DF] [DG]2 | [DA]2 [C=A]2 [Ec]2 [DB]2 | [DE]2 [Cc]6 | %4
w: By~Uzzziah~Christopher~Burnap,~1895 * * *||||
 [=Ec]2 [Fc]2- [Fc][Fd] [Fc]2 | [=EB]2 [EB]2- [EB][FA] [FA]2 | [FA]2 [=Dc]2- [Dc][DB] [DA]2 | %7
w: |||
 [=DF]2 E6 | z2 .B4 z2 | [Ec]2 [DB]2- [DB][CA] [CE]2 | [Ec]2 [Ec]2- [Ec][Ec] [Fd]2 | [Ec]2 [DB]6 | %12
w: |||||
 [=EB]2 [_EB]2- [EB]E E2 | [EA]2 [=EA]2- [EA][EG] F2 | [_C=D]2 [=CE]2 [EA]2 [FA]2 | [EG]2 [EA]6- | %16
w: ||||
 [EA]2 z2 z4 |] %17
w: |
V:2
 x8 | x8 | x8 | x8 | x8 | x8 | x8 | x8 | E2 D2 C[C=A] [DB]2 | x8 | x8 | x8 | x8 | x8 | x8 | x8 | %16
 x8 |] %17
V:3
 E,2 E,2 E,2 E,2 | E,2 E,2- E,E, E,2 | F,2 _G,2 G,2 =G,2 | B,2 A,6 | C2 C2- CC D2 | D2 D2- DC C2 | %6
 C2[K:bass] A,2- A,F, C2 | A,2 G,6 | E,2 G,2 _G,2 =G,2 | G,2 A,2- A,A, A,2 | A,2 =A,2- A,A, G,2 | %11
 =A,2 B,6 | B,2 B,2- B,=A, B,2 | C2 C2- CB, A,2 | A,2 A,2 C2 B,2 | D2 C6- | C2 z2 z4 |] %17
V:4
 A,,2 A,,2 A,,2 A,,2 | A,,2 B,,2- B,,B,, B,,2 | B,,2 E,2 E,2 _G,2 | E,2 A,,6 | A,2 A,2- A,A, G,2 | %5
 G,2 F,2- F,F, F,2 | F,2 B,,2- B,,B,, B,,2 | B,,2 E,6 | z2 E,2 E,2 E,2 | E,2 A,,2- A,,A,, A,,2 | %10
 z2 F,2- F,F, F,2 | F,2 z2 z4 | A,2 G,2- G,_G, =G,2 | A,2 C,2- C,C, D,2 | F,2 E,2 E,2 E,2 | %15
 E,2 A,,6- | A,,2 z2 z4 |] %17

